Examples/160914_Eilat_UW__CaptureOne/V1_Styles50/DSC03383.costyle
<?xml version="1.0" encoding="utf-8"?>
<SL Engine="800">
  <E K="FilmCurve" V="SonyNEXC3-Linear Response.fcrv" />
  <E K="WhiteBalanceTint" V="-39.063" />
  <E K="WhiteBalanceTemperature" V="14000.000" />
  <E K="GradationCurve" V="0.000,0.000;1.000,1.000" />
  <E K="Name" V="DSC03383" />
  <E K="UUID" V="47a1cecc-c78b-4346-a787-0277487f7977" />
  <E K="StyleSource" V="Styles" />
</SL>