Examples/160914_Eilat_UW__CaptureOne/V1_Styles50/DSC03403.costyle
<?xml version="1.0" encoding="utf-8"?>
<SL Engine="800">
  <E K="FilmCurve" V="SonyNEXC3-Linear Response.fcrv" />
  <E K="WhiteBalanceTint" V="-27.617" />
  <E K="WhiteBalanceTemperature" V="14000.000" />
  <E K="GradationCurve" V="0.000,0.000;1.000,1.000" />
  <E K="Name" V="DSC03403" />
  <E K="UUID" V="03625124-b576-4357-a02d-497cb271fb1f" />
  <E K="StyleSource" V="Styles" />
</SL>