Examples/160914_Eilat_UW__CaptureOne/V1_Styles50/DSC03351.costyle
<?xml version="1.0" encoding="utf-8"?>
<SL Engine="800">
  <E K="FilmCurve" V="SonyNEXC3-Linear Response.fcrv" />
  <E K="WhiteBalanceTint" V="-38.393" />
  <E K="WhiteBalanceTemperature" V="14000.000" />
  <E K="GradationCurve" V="0.000,0.000;1.000,1.000" />
  <E K="Name" V="DSC03351" />
  <E K="UUID" V="0c52fa6e-a28f-469b-ab61-3837ef070191" />
  <E K="StyleSource" V="Styles" />
</SL>