Examples/160914_Eilat_UW__CaptureOne/V1_Styles50/DSC03401.costyle
<?xml version="1.0" encoding="utf-8"?>
<SL Engine="800">
  <E K="FilmCurve" V="SonyNEXC3-Linear Response.fcrv" />
  <E K="WhiteBalanceTint" V="-32.688" />
  <E K="WhiteBalanceTemperature" V="14000.000" />
  <E K="GradationCurve" V="0.000,0.000;1.000,1.000" />
  <E K="Name" V="DSC03401" />
  <E K="UUID" V="4104a658-756f-4314-96a9-4e349e38d72b" />
  <E K="StyleSource" V="Styles" />
</SL>