Examples/160914_Eilat_UW__CaptureOne/V1_Styles50/DSC03356.costyle
<?xml version="1.0" encoding="utf-8"?>
<SL Engine="800">
  <E K="FilmCurve" V="SonyNEXC3-Linear Response.fcrv" />
  <E K="WhiteBalanceTint" V="-36.980" />
  <E K="WhiteBalanceTemperature" V="14000.000" />
  <E K="GradationCurve" V="0.000,0.000;1.000,1.000" />
  <E K="Name" V="DSC03356" />
  <E K="UUID" V="7d71cc86-efdf-44dd-924d-b2ded51d1319" />
  <E K="StyleSource" V="Styles" />
</SL>