Examples/160914_Eilat_UW__CaptureOne/V1_Styles50/DSC03363.costyle
<?xml version="1.0" encoding="utf-8"?>
<SL Engine="800">
  <E K="FilmCurve" V="SonyNEXC3-Linear Response.fcrv" />
  <E K="WhiteBalanceTint" V="-37.293" />
  <E K="WhiteBalanceTemperature" V="14000.000" />
  <E K="GradationCurve" V="0.000,0.000;1.000,1.000" />
  <E K="Name" V="DSC03363" />
  <E K="UUID" V="879cc5e5-c794-492f-a19c-8786e62fc222" />
  <E K="StyleSource" V="Styles" />
</SL>