Examples/160914_Eilat_UW__CaptureOne/V1_Styles50/DSC03376.costyle
<?xml version="1.0" encoding="utf-8"?>
<SL Engine="800">
  <E K="FilmCurve" V="SonyNEXC3-Linear Response.fcrv" />
  <E K="WhiteBalanceTint" V="-38.557" />
  <E K="WhiteBalanceTemperature" V="14000.000" />
  <E K="GradationCurve" V="0.000,0.000;1.000,1.000" />
  <E K="Name" V="DSC03376" />
  <E K="UUID" V="1842073b-9636-4319-a51c-5324f95146b6" />
  <E K="StyleSource" V="Styles" />
</SL>