Examples/160914_Eilat_UW__CaptureOne/V1_Styles50/DSC03407.costyle
<?xml version="1.0" encoding="utf-8"?>
<SL Engine="800">
  <E K="FilmCurve" V="SonyNEXC3-Linear Response.fcrv" />
  <E K="WhiteBalanceTint" V="-7.976" />
  <E K="WhiteBalanceTemperature" V="14000.000" />
  <E K="GradationCurve" V="0.000,0.000;1.000,1.000" />
  <E K="Name" V="DSC03407" />
  <E K="UUID" V="b091c540-defc-488c-a787-07d6253c47e7" />
  <E K="StyleSource" V="Styles" />
</SL>