Examples/160914_Eilat_UW__CaptureOne/V1_Styles50/DSC03389.costyle
<?xml version="1.0" encoding="utf-8"?>
<SL Engine="800">
  <E K="FilmCurve" V="SonyNEXC3-Linear Response.fcrv" />
  <E K="WhiteBalanceTint" V="-35.845" />
  <E K="WhiteBalanceTemperature" V="14000.000" />
  <E K="GradationCurve" V="0.000,0.000;1.000,1.000" />
  <E K="Name" V="DSC03389" />
  <E K="UUID" V="67c08caa-85cf-4ce8-91e7-22bb07d7a0df" />
  <E K="StyleSource" V="Styles" />
</SL>