Examples/160914_Eilat_UW__CaptureOne/V1_Styles50/DSC03341.costyle
<?xml version="1.0" encoding="utf-8"?>
<SL Engine="800">
  <E K="FilmCurve" V="SonyNEXC3-Linear Response.fcrv" />
  <E K="WhiteBalanceTint" V="4.966" />
  <E K="WhiteBalanceTemperature" V="12711.370" />
  <E K="GradationCurve" V="0.000,0.000;1.000,1.000" />
  <E K="Name" V="DSC03341" />
  <E K="UUID" V="29cf4774-450c-4f56-a4e8-bb9de44befef" />
  <E K="StyleSource" V="Styles" />
  <E K="ColorCorrections" V="1,1,1,0.000000,0.000000,0.000000,127.000000,63.000000,119.000000,-28.822567,28.822567,-10000000.000000,10000000.000000,12.000000,0.000000,0;1,1,1,0.000000,0.000000,0.000000,67.000000,63.000000,127.000000,-21.978279,21.978279,-10000000.000000,10000000.000000,12.000000,0.000000,0;1,1,1,0.000000,0.000000,0.000000,63.000000,118.000000,127.000000,-22.322311,22.322311,-10000000.000000,10000000.000000,12.000000,0.000000,0;1,1,1,0.000000,0.000000,0.000000,69.000000,127.000000,63.000000,-38.925846,38.925846,-10000000.000000,10000000.000000,12.000000,0.000000,0;1,1,1,0.000000,0.000000,0.000000,127.000000,115.000000,63.000000,-13.542439,13.542439,-10000000.000000,10000000.000000,12.000000,0.000000,0;1,1,1,0.000000,0.000000,0.000000,127.000000,68.000000,63.000000,-18.408569,18.408569,-10000000.000000,10000000.000000,12.000000,0.000000,0;0,1,1,0.000000,0.000000,0.000000,0.000000,128.000000,0.000000,-8.000000,8.000000,-10000000.000000,10000000.000000,0.000000,0.000000,0;" />
</SL>