Examples/160914_Eilat_UW__CaptureOne/V1_Styles50/DSC03370.costyle
<?xml version="1.0" encoding="utf-8"?>
<SL Engine="800">
  <E K="FilmCurve" V="SonyNEXC3-Linear Response.fcrv" />
  <E K="WhiteBalanceTint" V="-39.008" />
  <E K="WhiteBalanceTemperature" V="14000.000" />
  <E K="GradationCurve" V="0.000,0.000;1.000,1.000" />
  <E K="Name" V="DSC03370" />
  <E K="UUID" V="ad112793-9c16-43d4-9c8b-c73358be7e19" />
  <E K="StyleSource" V="Styles" />
</SL>