Examples/160914_Eilat_UW__CaptureOne/V1_Styles50/DSC03409.costyle
<?xml version="1.0" encoding="utf-8"?>
<SL Engine="800">
  <E K="FilmCurve" V="SonyNEXC3-Linear Response.fcrv" />
  <E K="WhiteBalanceTint" V="-14.381" />
  <E K="WhiteBalanceTemperature" V="14000.000" />
  <E K="GradationCurve" V="0.000,0.000;1.000,1.000" />
  <E K="Name" V="DSC03409" />
  <E K="UUID" V="1322ad94-a314-4392-b403-ba9526d6fba6" />
  <E K="StyleSource" V="Styles" />
</SL>