Examples/160914_Eilat_UW__CaptureOne/All/DSC03407.costyle
<?xml version="1.0" encoding="utf-8"?>
<SL Engine="800">
  <E K="FilmCurve" V="SonyNEXC3-Linear Response.fcrv" />
  <E K="WhiteBalanceTint" V="-6.680" />
  <E K="WhiteBalanceTemperature" V="14000.000" />
  <E K="GradationCurve" V="0.000,0.000;1.000,1.000" />
  <E K="Name" V="DSC03407" />
  <E K="UUID" V="b1fc1d70-4512-41ca-96be-d30af79ab121" />
  <E K="StyleSource" V="Styles" />
</SL>