Examples/160914_Eilat_UW__CaptureOne/All/DSC03636.costyle
<?xml version="1.0" encoding="utf-8"?>
<SL Engine="800">
  <E K="ICCProfile" V="Generic.icm" />
  <E K="FilmCurve" V="SonyNEXC3-Linear Response.fcrv" />
  <E K="GradationCurve" V="0.000,0.000;1.000,1.000" />
  <E K="Name" V="DSC03636_custom_wb" />
  <E K="UUID" V="a7589acf-1cb4-4917-a3e0-3f17af3acb22" />
  <E K="StyleSource" V="Styles" />
</SL>