Examples/160914_Eilat_UW__CaptureOne/All/DSC03379.costyle
<?xml version="1.0" encoding="utf-8"?>
<SL Engine="800">
  <E K="FilmCurve" V="SonyNEXC3-Linear Response.fcrv" />
  <E K="WhiteBalanceTint" V="-39.552" />
  <E K="WhiteBalanceTemperature" V="14000.000" />
  <E K="GradationCurve" V="0.000,0.000;1.000,1.000" />
  <E K="Name" V="DSC03379" />
  <E K="UUID" V="28779806-810f-4f1d-92f3-ee1fc827d7c1" />
  <E K="StyleSource" V="Styles" />
</SL>