Examples/160914_Eilat_UW__CaptureOne/All/DSC03383.costyle
<?xml version="1.0" encoding="utf-8"?>
<SL Engine="800">
  <E K="FilmCurve" V="SonyNEXC3-Linear Response.fcrv" />
  <E K="WhiteBalanceTint" V="-40.356" />
  <E K="WhiteBalanceTemperature" V="14000.000" />
  <E K="GradationCurve" V="0.000,0.000;1.000,1.000" />
  <E K="Name" V="DSC03383" />
  <E K="UUID" V="d56ad0a5-3b60-427b-9132-de296d9da75d" />
  <E K="StyleSource" V="Styles" />
</SL>