Examples/160914_Eilat_UW__CaptureOne/All/DSC03401.costyle
<?xml version="1.0" encoding="utf-8"?>
<SL Engine="800">
  <E K="FilmCurve" V="SonyNEXC3-Linear Response.fcrv" />
  <E K="WhiteBalanceTint" V="-31.695" />
  <E K="WhiteBalanceTemperature" V="14000.000" />
  <E K="GradationCurve" V="0.000,0.000;1.000,1.000" />
  <E K="Name" V="DSC03401" />
  <E K="UUID" V="c99827be-4561-4dbc-90ce-26421a03391f" />
  <E K="StyleSource" V="Styles" />
</SL>