Examples/160914_Eilat_UW__CaptureOne/All/DSC03370.costyle
<?xml version="1.0" encoding="utf-8"?>
<SL Engine="800">
  <E K="FilmCurve" V="SonyNEXC3-Linear Response.fcrv" />
  <E K="WhiteBalanceTint" V="-39.475" />
  <E K="WhiteBalanceTemperature" V="14000.000" />
  <E K="GradationCurve" V="0.000,0.000;1.000,1.000" />
  <E K="Name" V="DSC03370" />
  <E K="UUID" V="8ff83fc7-7d11-4b39-9b1f-6af097b09d2c" />
  <E K="StyleSource" V="Styles" />
</SL>