Examples/160914_Eilat_UW__CaptureOne/All/DSC03363.costyle
<?xml version="1.0" encoding="utf-8"?>
<SL Engine="800">
  <E K="FilmCurve" V="SonyNEXC3-Linear Response.fcrv" />
  <E K="WhiteBalanceTint" V="-37.163" />
  <E K="WhiteBalanceTemperature" V="14000.000" />
  <E K="GradationCurve" V="0.000,0.000;1.000,1.000" />
  <E K="Name" V="DSC03363" />
  <E K="UUID" V="df18b12d-284b-4238-acec-4133b7822345" />
  <E K="StyleSource" V="Styles" />
</SL>