Examples/160914_Eilat_UW__CaptureOne/All/DSC03351.costyle
<?xml version="1.0" encoding="utf-8"?>
<SL Engine="800">
  <E K="FilmCurve" V="SonyNEXC3-Linear Response.fcrv" />
  <E K="WhiteBalanceTint" V="-37.755" />
  <E K="WhiteBalanceTemperature" V="14000.000" />
  <E K="GradationCurve" V="0.000,0.000;1.000,1.000" />
  <E K="Name" V="DSC03351" />
  <E K="UUID" V="97949353-4b71-44d1-a1e4-7d7e82bfa084" />
  <E K="StyleSource" V="Styles" />
</SL>