Examples/160914_Eilat_UW__CaptureOne/All/DSC03402.costyle
<?xml version="1.0" encoding="utf-8"?>
<SL Engine="800">
  <E K="FilmCurve" V="SonyNEXC3-Linear Response.fcrv" />
  <E K="WhiteBalanceTint" V="-38.914" />
  <E K="WhiteBalanceTemperature" V="14000.000" />
  <E K="GradationCurve" V="0.000,0.000;1.000,1.000" />
  <E K="Name" V="DSC03402" />
  <E K="UUID" V="273d81d4-a583-4e2c-b3c3-a13378cd723f" />
  <E K="StyleSource" V="Styles" />
</SL>