Examples/160914_Eilat_UW__CaptureOne/All/DSC03745.costyle
<?xml version="1.0" encoding="utf-8"?>
<SL Engine="800">
  <E K="ICCProfile" V="Generic.icm" />
  <E K="FilmCurve" V="SonyNEXC3-Linear Response.fcrv" />
  <E K="WhiteBalanceTint" V="18.174" />
  <E K="WhiteBalanceTemperature" V="6468.841" />
  <E K="GradationCurve" V="0.000,0.000;1.000,1.000" />
  <E K="Name" V="DSC03745_custom_wb" />
  <E K="UUID" V="3f634299-9422-4924-9d47-a50c482e7510" />
  <E K="StyleSource" V="Styles" />
</SL>