Examples/160914_Eilat_UW__CaptureOne/All/DSC03403.costyle
<?xml version="1.0" encoding="utf-8"?>
<SL Engine="800">
  <E K="FilmCurve" V="SonyNEXC3-Linear Response.fcrv" />
  <E K="WhiteBalanceTint" V="-26.371" />
  <E K="WhiteBalanceTemperature" V="14000.000" />
  <E K="GradationCurve" V="0.000,0.000;1.000,1.000" />
  <E K="Name" V="DSC03403" />
  <E K="UUID" V="1e72410d-6541-46ca-9ea7-1666b11c53f9" />
  <E K="StyleSource" V="Styles" />
</SL>