Examples/160914_Eilat_UW__CaptureOne/All/DSC03409.costyle
<?xml version="1.0" encoding="utf-8"?>
<SL Engine="800">
  <E K="FilmCurve" V="SonyNEXC3-Linear Response.fcrv" />
  <E K="WhiteBalanceTint" V="-14.817" />
  <E K="WhiteBalanceTemperature" V="14000.000" />
  <E K="GradationCurve" V="0.000,0.000;1.000,1.000" />
  <E K="Name" V="DSC03409" />
  <E K="UUID" V="1b6faf94-1f68-4890-83d3-9234e3c4a8c4" />
  <E K="StyleSource" V="Styles" />
</SL>