Examples/160914_Eilat_UW__CaptureOne/All/DSC03376.costyle
<?xml version="1.0" encoding="utf-8"?>
<SL Engine="800">
  <E K="FilmCurve" V="SonyNEXC3-Linear Response.fcrv" />
  <E K="WhiteBalanceTint" V="-37.414" />
  <E K="WhiteBalanceTemperature" V="14000.000" />
  <E K="GradationCurve" V="0.000,0.000;1.000,1.000" />
  <E K="Name" V="DSC03376" />
  <E K="UUID" V="518f6055-1084-4359-969e-81b7dcecf267" />
  <E K="StyleSource" V="Styles" />
</SL>