Examples/160914_Eilat_UW__CaptureOne/All/DSC03356.costyle
<?xml version="1.0" encoding="utf-8"?>
<SL Engine="800">
  <E K="FilmCurve" V="SonyNEXC3-Linear Response.fcrv" />
  <E K="WhiteBalanceTint" V="-37.181" />
  <E K="WhiteBalanceTemperature" V="14000.000" />
  <E K="GradationCurve" V="0.000,0.000;1.000,1.000" />
  <E K="Name" V="DSC03356" />
  <E K="UUID" V="d517be83-e36c-4c7a-bca7-8cab4fc39668" />
  <E K="StyleSource" V="Styles" />
</SL>