Examples/160914_Eilat_UW__CaptureOne/All/DSC03345.costyle
<?xml version="1.0" encoding="utf-8"?>
<SL Engine="800">
  <E K="FilmCurve" V="SonyNEXC3-Linear Response.fcrv" />
  <E K="WhiteBalanceTint" V="-33.244" />
  <E K="WhiteBalanceTemperature" V="14000.000" />
  <E K="GradationCurve" V="0.000,0.000;1.000,1.000" />
  <E K="Name" V="DSC03345" />
  <E K="UUID" V="3b908458-6aaf-4b1a-abff-b23ed627606c" />
  <E K="StyleSource" V="Styles" />
</SL>