Examples/160914_Eilat_UW__CaptureOne/All/DSC03342.costyle
<?xml version="1.0" encoding="utf-8"?>
<SL Engine="800">
  <E K="FilmCurve" V="SonyNEXC3-Linear Response.fcrv" />
  <E K="WhiteBalanceTint" V="-36.346" />
  <E K="WhiteBalanceTemperature" V="14000.000" />
  <E K="GradationCurve" V="0.000,0.000;1.000,1.000" />
  <E K="Name" V="DSC03342" />
  <E K="UUID" V="3ffd92b9-b226-4fc9-9eb1-49332a9f07f0" />
  <E K="StyleSource" V="Styles" />
</SL>