Examples/160914_Eilat_UW__CaptureOne/All/DSC03642.costyle
<?xml version="1.0" encoding="utf-8"?>
<SL Engine="800">
  <E K="ICCProfile" V="Generic.icm" />
  <E K="FilmCurve" V="SonyNEXC3-Linear Response.fcrv" />
  <E K="WhiteBalanceTint" V="13.928" />
  <E K="WhiteBalanceTemperature" V="6064.899" />
  <E K="GradationCurve" V="0.000,0.000;1.000,1.000" />
  <E K="Name" V="DSC03642_custom_wb" />
  <E K="UUID" V="089f88e4-bd72-4edc-9077-051ed6d02555" />
  <E K="StyleSource" V="Styles" />
</SL>