Examples/160914_Eilat_UW__CaptureOne/All/styles50/DSC03650_pick_wb.costyle
<?xml version="1.0" encoding="utf-8"?>
<SL Engine="800">
  <E K="ICCProfile" V="Generic.icm" />
  <E K="FilmCurve" V="SonyNEXC3-Linear Response.fcrv" />
  <E K="WhiteBalanceTint" V="-44.240" />
  <E K="WhiteBalanceTemperature" V="14000.000" />
  <E K="GradationCurve" V="0.000,0.000;1.000,1.000" />
  <E K="Name" V="DSC03650_pick_wb" />
  <E K="UUID" V="29fb322e-ee07-4d69-9c42-b703cc4afd0e" />
  <E K="StyleSource" V="Styles" />
</SL>