Examples/160914_Eilat_UW__CaptureOne/All/styles50/DSC03688_pick_wb.costyle
<?xml version="1.0" encoding="utf-8"?>
<SL Engine="800">
  <E K="ICCProfile" V="Generic.icm" />
  <E K="FilmCurve" V="SonyNEXC3-Linear Response.fcrv" />
  <E K="WhiteBalanceTint" V="-33.210" />
  <E K="WhiteBalanceTemperature" V="14000.000" />
  <E K="GradationCurve" V="0.000,0.000;1.000,1.000" />
  <E K="Name" V="DSC03688_pick_wb" />
  <E K="UUID" V="fdf4844b-7a48-4de9-830a-8191c0735657" />
  <E K="StyleSource" V="Styles" />
</SL>