Examples/160914_Eilat_UW__CaptureOne/All/styles50/DSC03745_pick_wb.costyle
<?xml version="1.0" encoding="utf-8"?>
<SL Engine="800">
  <E K="ICCProfile" V="Generic.icm" />
  <E K="FilmCurve" V="SonyNEXC3-Linear Response.fcrv" />
  <E K="WhiteBalanceTint" V="-8.654" />
  <E K="WhiteBalanceTemperature" V="14000.000" />
  <E K="GradationCurve" V="0.000,0.000;1.000,1.000" />
  <E K="Name" V="DSC03745_pick_wb" />
  <E K="UUID" V="3156097c-a99f-4a3d-bab7-32bfc47edf05" />
  <E K="StyleSource" V="Styles" />
</SL>