Examples/160914_Eilat_UW__CaptureOne/All/styles50/DSC03730_pick_wb.costyle
<?xml version="1.0" encoding="utf-8"?>
<SL Engine="800">
  <E K="ICCProfile" V="Generic.icm" />
  <E K="FilmCurve" V="SonyNEXC3-Linear Response.fcrv" />
  <E K="WhiteBalanceTint" V="-1.522" />
  <E K="WhiteBalanceTemperature" V="14000.000" />
  <E K="GradationCurve" V="0.000,0.000;1.000,1.000" />
  <E K="Name" V="DSC03730_pick_wb" />
  <E K="UUID" V="0f9020c5-d22a-461a-b93b-60e84610f32d" />
  <E K="StyleSource" V="Styles" />
</SL>