Examples/160914_Eilat_UW__CaptureOne/All/styles50/DSC03640_pick_wb.costyle
<?xml version="1.0" encoding="utf-8"?>
<SL Engine="800">
  <E K="ICCProfile" V="Generic.icm" />
  <E K="FilmCurve" V="SonyNEXC3-Linear Response.fcrv" />
  <E K="WhiteBalanceTint" V="-20.727" />
  <E K="WhiteBalanceTemperature" V="14000.000" />
  <E K="GradationCurve" V="0.000,0.000;1.000,1.000" />
  <E K="Name" V="DSC03640_pick_wb" />
  <E K="UUID" V="2c31885c-5756-4abd-a43f-55ecd686bb88" />
  <E K="StyleSource" V="Styles" />
</SL>