Examples/160914_Eilat_UW__CaptureOne/All/styles50/DSC03370_custom_wb.costyle
<?xml version="1.0" encoding="utf-8"?>
<SL Engine="800">
  <E K="FilmCurve" V="SonyNEXC3-Linear Response.fcrv" />
  <E K="WhiteBalanceTint" V="16.967" />
  <E K="WhiteBalanceTemperature" V="6162.541" />
  <E K="GradationCurve" V="0.000,0.000;1.000,1.000" />
  <E K="Name" V="DSC03370_custom_wb" />
  <E K="UUID" V="349413f8-f931-4b7b-b787-422fb514c0b2" />
  <E K="StyleSource" V="Styles" />
</SL>