Examples/160914_Eilat_UW__CaptureOne/All/styles50/DSC03637_pick_wb.costyle
<?xml version="1.0" encoding="utf-8"?>
<SL Engine="800">
  <E K="ICCProfile" V="Generic.icm" />
  <E K="FilmCurve" V="SonyNEXC3-Linear Response.fcrv" />
  <E K="WhiteBalanceTint" V="27.602" />
  <E K="WhiteBalanceTemperature" V="6571.990" />
  <E K="GradationCurve" V="0.000,0.000;1.000,1.000" />
  <E K="Name" V="DSC03637_pick_wb" />
  <E K="UUID" V="3b9a5613-753d-4d82-afdd-587d2d6e5c1c" />
  <E K="StyleSource" V="Styles" />
</SL>