Examples/160914_Eilat_UW__CaptureOne/All/styles50/DSC03742_pick_wb.costyle
<?xml version="1.0" encoding="utf-8"?>
<SL Engine="800">
  <E K="ICCProfile" V="Generic.icm" />
  <E K="FilmCurve" V="SonyNEXC3-Linear Response.fcrv" />
  <E K="WhiteBalanceTint" V="-4.558" />
  <E K="WhiteBalanceTemperature" V="14000.000" />
  <E K="GradationCurve" V="0.000,0.000;1.000,1.000" />
  <E K="Name" V="DSC03742_pick_wb" />
  <E K="UUID" V="a170284e-f2f5-4633-ac53-b97788442027" />
  <E K="StyleSource" V="Styles" />
</SL>