Examples/160914_Eilat_UW__CaptureOne/All/styles50/DSC03403_custom_wb.costyle
<?xml version="1.0" encoding="utf-8"?>
<SL Engine="800">
  <E K="FilmCurve" V="SonyNEXC3-Linear Response.fcrv" />
  <E K="Exposure" V="0.000" />
  <E K="GradationCurve" V="0.000,0.000;1.000,1.000" />
  <E K="Name" V="DSC03403_custom_wb" />
  <E K="UUID" V="d288a98e-19fb-451c-99e5-8e7826865701" />
  <E K="StyleSource" V="Styles" />
</SL>