Examples/160914_Eilat_UW__CaptureOne/All/styles50/DSC03646_pick_wb.costyle
<?xml version="1.0" encoding="utf-8"?>
<SL Engine="800">
  <E K="ICCProfile" V="Generic.icm" />
  <E K="FilmCurve" V="SonyNEXC3-Linear Response.fcrv" />
  <E K="WhiteBalanceTint" V="-38.570" />
  <E K="WhiteBalanceTemperature" V="14000.000" />
  <E K="GradationCurve" V="0.000,0.000;1.000,1.000" />
  <E K="Name" V="DSC03646_pick_wb" />
  <E K="UUID" V="0f750389-4ffa-4e29-9bcd-41038bfa0666" />
  <E K="StyleSource" V="Styles" />
</SL>