Examples/160914_Eilat_UW__CaptureOne/All/styles50/DSC03389_custom_wb.costyle
<?xml version="1.0" encoding="utf-8"?>
<SL Engine="800">
  <E K="FilmCurve" V="SonyNEXC3-Linear Response.fcrv" />
  <E K="WhiteBalanceTint" V="15.934" />
  <E K="WhiteBalanceTemperature" V="5844.957" />
  <E K="GradationCurve" V="0.000,0.000;1.000,1.000" />
  <E K="Name" V="DSC03389_custom_wb" />
  <E K="UUID" V="fbf2e6f2-bce2-4c3b-b40d-d0cc13fad574" />
  <E K="StyleSource" V="Styles" />
</SL>