Examples/160914_Eilat_UW__CaptureOne/All/styles50/DSC03676_custom_wb.costyle
<?xml version="1.0" encoding="utf-8"?>
<SL Engine="800">
  <E K="ICCProfile" V="Generic.icm" />
  <E K="FilmCurve" V="SonyNEXC3-Linear Response.fcrv" />
  <E K="WhiteBalanceTint" V="30.132" />
  <E K="WhiteBalanceTemperature" V="7388.659" />
  <E K="GradationCurve" V="0.000,0.000;1.000,1.000" />
  <E K="Name" V="DSC03676_custom_wb" />
  <E K="UUID" V="bfa8813f-d084-4ec2-8932-82215a571480" />
  <E K="StyleSource" V="Styles" />
</SL>