Examples/160914_Eilat_UW__CaptureOne/All/styles50/DSC03401_custom_wb.costyle
<?xml version="1.0" encoding="utf-8"?>
<SL Engine="800">
  <E K="FilmCurve" V="SonyNEXC3-Linear Response.fcrv" />
  <E K="WhiteBalanceTint" V="14.574" />
  <E K="WhiteBalanceTemperature" V="5521.495" />
  <E K="GradationCurve" V="0.000,0.000;1.000,1.000" />
  <E K="Name" V="DSC03401_custom_wb" />
  <E K="UUID" V="43829b9b-61c9-4b85-bbb3-6f91bb0f592d" />
  <E K="StyleSource" V="Styles" />
</SL>