Examples/160914_Eilat_UW__CaptureOne/All/styles50/DSC03698_pick_wb.costyle
<?xml version="1.0" encoding="utf-8"?>
<SL Engine="800">
  <E K="ICCProfile" V="Generic.icm" />
  <E K="FilmCurve" V="SonyNEXC3-Linear Response.fcrv" />
  <E K="WhiteBalanceTint" V="-42.489" />
  <E K="WhiteBalanceTemperature" V="14000.000" />
  <E K="GradationCurve" V="0.000,0.000;1.000,1.000" />
  <E K="Name" V="DSC03698_pick_wb" />
  <E K="UUID" V="05403a88-1fa1-41a0-9694-1375a1849f33" />
  <E K="StyleSource" V="Styles" />
</SL>