Examples/160914_Eilat_UW__CaptureOne/All/styles50/DSC03637_custom_wb.costyle
<?xml version="1.0" encoding="utf-8"?>
<SL Engine="800">
  <E K="ICCProfile" V="Generic.icm" />
  <E K="FilmCurve" V="SonyNEXC3-Linear Response.fcrv" />
  <E K="WhiteBalanceTint" V="15.979" />
  <E K="WhiteBalanceTemperature" V="5804.649" />
  <E K="GradationCurve" V="0.000,0.000;1.000,1.000" />
  <E K="Name" V="DSC03637_custom_wb" />
  <E K="UUID" V="9a8e39dd-a5d1-4240-b790-7295c655db2c" />
  <E K="StyleSource" V="Styles" />
</SL>