Examples/160914_Eilat_UW__CaptureOne/All/styles50/DSC03722_pick_wb.costyle
<?xml version="1.0" encoding="utf-8"?>
<SL Engine="800">
  <E K="ICCProfile" V="Generic.icm" />
  <E K="FilmCurve" V="SonyNEXC3-Linear Response.fcrv" />
  <E K="WhiteBalanceTint" V="-0.905" />
  <E K="WhiteBalanceTemperature" V="14000.000" />
  <E K="GradationCurve" V="0.000,0.000;1.000,1.000" />
  <E K="Name" V="DSC03722_pick_wb" />
  <E K="UUID" V="29bef81c-a20f-4107-b4c6-9fe37eb6d7ee" />
  <E K="StyleSource" V="Styles" />
</SL>