Examples/211114__Eilat_UW_CaptureOne/DSC03707.costyle
<?xml version="1.0" encoding="utf-8"?>
<SL Engine="800">
  <E K="ICCProfile" V="Generic.icm" />
  <E K="FilmCurve" V="SonyNEXC3-Linear Response.fcrv" />
  <E K="WhiteBalanceTint" V="-23.743" />
  <E K="WhiteBalanceTemperature" V="14000.000" />
  <E K="GradationCurve" V="0.000,0.000;1.000,1.000" />
  <E K="Name" V="DSC03707_pick_wb" />
  <E K="UUID" V="ad34b3d0-af99-4747-a89e-6585fe0d405a" />
  <E K="StyleSource" V="Styles" />
</SL>