Examples/211114__Eilat_UW_CaptureOne/DSC03642.costyle
<?xml version="1.0" encoding="utf-8"?>
<SL Engine="800">
  <E K="ICCProfile" V="Generic.icm" />
  <E K="FilmCurve" V="SonyNEXC3-Linear Response.fcrv" />
  <E K="WhiteBalanceTint" V="-33.608" />
  <E K="WhiteBalanceTemperature" V="14000.000" />
  <E K="GradationCurve" V="0.000,0.000;1.000,1.000" />
  <E K="Name" V="DSC03642_pick_wb" />
  <E K="UUID" V="b3ff0f59-fa93-41fd-b98a-157a3d202419" />
  <E K="StyleSource" V="Styles" />
</SL>