Examples/211114__Eilat_UW_CaptureOne/DSC03685.costyle
<?xml version="1.0" encoding="utf-8"?>
<SL Engine="800">
  <E K="ICCProfile" V="Generic.icm" />
  <E K="FilmCurve" V="SonyNEXC3-Linear Response.fcrv" />
  <E K="WhiteBalanceTint" V="-25.308" />
  <E K="WhiteBalanceTemperature" V="14000.000" />
  <E K="GradationCurve" V="0.000,0.000;1.000,1.000" />
  <E K="Name" V="DSC03685_pick_wb" />
  <E K="UUID" V="9994bbb9-f3ad-43fa-b088-5595ebf34217" />
  <E K="StyleSource" V="Styles" />
</SL>