Examples/211114__Eilat_UW_CaptureOne/DSC03676.costyle
<?xml version="1.0" encoding="utf-8"?>
<SL Engine="800">
  <E K="ICCProfile" V="Generic.icm" />
  <E K="FilmCurve" V="SonyNEXC3-Linear Response.fcrv" />
  <E K="WhiteBalanceTint" V="-38.232" />
  <E K="WhiteBalanceTemperature" V="14000.000" />
  <E K="GradationCurve" V="0.000,0.000;1.000,1.000" />
  <E K="Name" V="DSC03676_pick_wb" />
  <E K="UUID" V="4240706c-6078-4025-8fc4-2836e6f281fb" />
  <E K="StyleSource" V="Styles" />
</SL>