Examples/211114__Eilat_UW_CaptureOne/DSC03696.costyle
<?xml version="1.0" encoding="utf-8"?>
<SL Engine="800">
  <E K="ICCProfile" V="Generic.icm" />
  <E K="FilmCurve" V="SonyNEXC3-Linear Response.fcrv" />
  <E K="WhiteBalanceTint" V="-24.880" />
  <E K="WhiteBalanceTemperature" V="14000.000" />
  <E K="GradationCurve" V="0.000,0.000;1.000,1.000" />
  <E K="Name" V="DSC03696_pick_wb" />
  <E K="UUID" V="b90e0730-99a0-4b66-9ba1-fea1ef7ccbe0" />
  <E K="StyleSource" V="Styles" />
</SL>