Examples/211114__Eilat_UW_CaptureOne/DSC03681.costyle
<?xml version="1.0" encoding="utf-8"?>
<SL Engine="800">
  <E K="ICCProfile" V="Generic.icm" />
  <E K="FilmCurve" V="SonyNEXC3-Linear Response.fcrv" />
  <E K="WhiteBalanceTint" V="-34.723" />
  <E K="WhiteBalanceTemperature" V="14000.000" />
  <E K="GradationCurve" V="0.000,0.000;1.000,1.000" />
  <E K="Name" V="DSC03681_pick_wb" />
  <E K="UUID" V="e20a2096-ddbd-45ae-a325-42f89b90b567" />
  <E K="StyleSource" V="Styles" />
</SL>