Examples/211114__Eilat_UW_CaptureOne/DSC03754.costyle
<?xml version="1.0" encoding="utf-8"?>
<SL Engine="800">
  <E K="ICCProfile" V="Generic.icm" />
  <E K="FilmCurve" V="SonyNEXC3-Linear Response.fcrv" />
  <E K="WhiteBalanceTint" V="14.853" />
  <E K="WhiteBalanceTemperature" V="11736.020" />
  <E K="GradationCurve" V="0.000,0.000;1.000,1.000" />
  <E K="Name" V="DSC03754_pick_wb" />
  <E K="UUID" V="4b5ccba3-79a3-4097-a7a9-f05d133c23d4" />
  <E K="StyleSource" V="Styles" />
</SL>