Examples/211114__Eilat_UW_CaptureOne/DSC03671.costyle
<?xml version="1.0" encoding="utf-8"?>
<SL Engine="800">
  <E K="ICCProfile" V="Generic.icm" />
  <E K="FilmCurve" V="SonyNEXC3-Linear Response.fcrv" />
  <E K="WhiteBalanceTint" V="-37.687" />
  <E K="WhiteBalanceTemperature" V="14000.000" />
  <E K="GradationCurve" V="0.000,0.000;1.000,1.000" />
  <E K="Name" V="DSC03671_pick_wb" />
  <E K="UUID" V="e638a2f7-570f-4654-bfe1-e1286b30fc1e" />
  <E K="StyleSource" V="Styles" />
</SL>