Examples/211114__Eilat_UW_CaptureOne/DSC03697.costyle
<?xml version="1.0" encoding="utf-8"?>
<SL Engine="800">
  <E K="FilmCurve" V="SonyNEXC3-Linear Response.fcrv" />
  <E K="WhiteBalanceTint" V="30.132" />
  <E K="WhiteBalanceTemperature" V="7388.659" />
  <E K="GradationCurve" V="0.000,0.000;1.000,1.000" />
  <E K="Name" V="DSC03697" />
  <E K="UUID" V="93d87e9c-46eb-4861-9d3c-157cf48ebb01" />
  <E K="StyleSource" V="Styles" />
</SL>