Examples/211114__Eilat_UW_CaptureOne/DSC03733.costyle
<?xml version="1.0" encoding="utf-8"?>
<SL Engine="800">
  <E K="ICCProfile" V="Generic.icm" />
  <E K="FilmCurve" V="SonyNEXC3-Linear Response.fcrv" />
  <E K="WhiteBalanceTint" V="-7.679" />
  <E K="WhiteBalanceTemperature" V="14000.000" />
  <E K="GradationCurve" V="0.000,0.000;1.000,1.000" />
  <E K="Name" V="DSC03733_pick_wb" />
  <E K="UUID" V="6076efe6-6f91-4f93-a858-1cfbb2656899" />
  <E K="StyleSource" V="Styles" />
</SL>