Examples/211114__Eilat_UW_CaptureOne/DSC03666.costyle
<?xml version="1.0" encoding="utf-8"?>
<SL Engine="800">
  <E K="ICCProfile" V="Generic.icm" />
  <E K="FilmCurve" V="SonyNEXC3-Linear Response.fcrv" />
  <E K="WhiteBalanceTint" V="-41.472" />
  <E K="WhiteBalanceTemperature" V="14000.000" />
  <E K="GradationCurve" V="0.000,0.000;1.000,1.000" />
  <E K="Name" V="DSC03666_pick_wb" />
  <E K="UUID" V="ebd55e46-0c62-42d5-be4f-45d2f1a1e7da" />
  <E K="StyleSource" V="Styles" />
</SL>