Examples/211114__Eilat_UW_CaptureOne/DSC03649.costyle
<?xml version="1.0" encoding="utf-8"?>
<SL Engine="800">
  <E K="FilmCurve" V="SonyNEXC3-Linear Response.fcrv" />
  <E K="WhiteBalanceTint" V="13.928" />
  <E K="WhiteBalanceTemperature" V="6064.899" />
  <E K="GradationCurve" V="0.000,0.000;1.000,1.000" />
  <E K="Name" V="DSC03649" />
  <E K="UUID" V="146080dc-7e93-404a-b6b9-f4606457c563" />
  <E K="StyleSource" V="Styles" />
</SL>