Examples/211114__Eilat_UW_CaptureOne/DSC03738.costyle
<?xml version="1.0" encoding="utf-8"?>
<SL Engine="800">
  <E K="ICCProfile" V="Generic.icm" />
  <E K="FilmCurve" V="SonyNEXC3-Linear Response.fcrv" />
  <E K="WhiteBalanceTint" V="-7.315" />
  <E K="WhiteBalanceTemperature" V="14000.000" />
  <E K="GradationCurve" V="0.000,0.000;1.000,1.000" />
  <E K="Name" V="DSC03738_pick_wb" />
  <E K="UUID" V="29350b16-4d2e-4e8a-a94b-ce167b00e559" />
  <E K="StyleSource" V="Styles" />
</SL>