Examples/211114__Eilat_UW_CaptureOne/DSC03639.costyle
<?xml version="1.0" encoding="utf-8"?>
<SL Engine="800">
  <E K="ICCProfile" V="Generic.icm" />
  <E K="FilmCurve" V="SonyNEXC3-Linear Response.fcrv" />
  <E K="WhiteBalanceTint" V="-2.991" />
  <E K="WhiteBalanceTemperature" V="14000.000" />
  <E K="GradationCurve" V="0.000,0.000;1.000,1.000" />
  <E K="Name" V="DSC03639_pick_wb" />
  <E K="UUID" V="436bb8bc-5d47-4547-9c04-adf98e863132" />
  <E K="StyleSource" V="Styles" />
</SL>