Examples/211114__Eilat_UW_CaptureOne/DSC03720.costyle
<?xml version="1.0" encoding="utf-8"?>
<SL Engine="800">
  <E K="ICCProfile" V="Generic.icm" />
  <E K="FilmCurve" V="SonyNEXC3-Linear Response.fcrv" />
  <E K="WhiteBalanceTint" V="-9.852" />
  <E K="WhiteBalanceTemperature" V="14000.000" />
  <E K="GradationCurve" V="0.000,0.000;1.000,1.000" />
  <E K="Name" V="DSC03720_pick_wb" />
  <E K="UUID" V="daa532b2-17b5-4c92-b0ea-7aba37b268fb" />
  <E K="StyleSource" V="Styles" />
</SL>