Examples/211114__Eilat_UW_CaptureOne/DSC03705.costyle
<?xml version="1.0" encoding="utf-8"?>
<SL Engine="800">
  <E K="ICCProfile" V="Generic.icm" />
  <E K="FilmCurve" V="SonyNEXC3-Linear Response.fcrv" />
  <E K="WhiteBalanceTint" V="-31.064" />
  <E K="WhiteBalanceTemperature" V="14000.000" />
  <E K="GradationCurve" V="0.000,0.000;1.000,1.000" />
  <E K="Name" V="DSC03705_pick_wb" />
  <E K="UUID" V="4c9175fd-6356-44c0-bd92-5dbf6fd79359" />
  <E K="StyleSource" V="Styles" />
</SL>