Examples/211114__Eilat_UW_CaptureOne/DSC03714.costyle
<?xml version="1.0" encoding="utf-8"?>
<SL Engine="800">
  <E K="ICCProfile" V="Generic.icm" />
  <E K="FilmCurve" V="SonyNEXC3-Linear Response.fcrv" />
  <E K="WhiteBalanceTint" V="-16.690" />
  <E K="WhiteBalanceTemperature" V="14000.000" />
  <E K="GradationCurve" V="0.000,0.000;1.000,1.000" />
  <E K="Name" V="DSC03714_pick_wb" />
  <E K="UUID" V="cecb47fc-4920-4bef-9799-de160bb8b885" />
  <E K="StyleSource" V="Styles" />
</SL>