Examples/211114__Eilat_UW_CaptureOne/DSC03655.costyle
<?xml version="1.0" encoding="utf-8"?>
<SL Engine="800">
  <E K="ICCProfile" V="Generic.icm" />
  <E K="FilmCurve" V="SonyNEXC3-Linear Response.fcrv" />
  <E K="WhiteBalanceTint" V="-44.237" />
  <E K="WhiteBalanceTemperature" V="14000.000" />
  <E K="GradationCurve" V="0.000,0.000;1.000,1.000" />
  <E K="Name" V="DSC03655_pick_wb" />
  <E K="UUID" V="1f6cac1c-c739-46eb-a9f6-093fd1b293ca" />
  <E K="StyleSource" V="Styles" />
</SL>